X: 1
T: Mary Scott
C: J. Scott Skinner
B: Logie Collection
S: T. Traub 2004-2-18
M: 4/4
L: 1/8
K: A
E |\
"A"c>d e>A "F#m"B<c A2 | "Bm"d>e f>F "E"G<A B2 |\
"A"c>d e>A "Bm"B>c d>f | "E"e<c B>A "A"A2 A :|
f |\
"A"e>A "D"(3agf "A"e<A c2 | "D"d>F "A"(3cBA "E"G>A B>f |\
"A"e>A "D"(3agf "A"e>c"D"d>f | "E"e<c B>A "A"A2 A ||
f |\
"A"e>A "D"(3agf "A"e<A c2 | "D"d>F "A"(3cBA "E"G>A B>E |\
"A"c>d e>c "D"d>e f>a | "E"e<c B>A "A"A2 A |]
